X:1
T: Kitty Mooney
C:
R:Jig
Q:180
K:F
M:6/8
L:1/16
|:(3cde|f4F2 F4F2|F4F2 F4G2|A4B2 c2B2A2|d6 c2d2e2|
f4F2 F4F2|F4F2 F4G2|A4G2 F4E2|D6D4:|
c2|d4c2 d4e2|f4g2 f4e2|d4c2 d4e2|f6f4g2|
a4f2 g4e2|f2e2d2 c4A2|c2d2e2 f2c2A2|G6 G2A2G2|
F6 F2A2c2|d6 d2e2f2|c2d2c2 c2B2A2|A2G2G2 G2A2G2|
F6 F2A2c2|d6 d2e2f2|c2d2c2 B2A2G2|G2F2F2 F4||
